!!!OTL: 313. Bruederschaft.
!!!ODT: 1818
!!!ARE: Europa, Mitteleuropa, Deutschland
!!!SCT: B0313
!!!TXL: @@DE
!!!YEM: Copyright 1995, estate of Helmut Schaffrath.
**kern	**text
*ICvox	*
*Ivox	*
*clefG2	*
*M2/4	*
*k[f#c#]	*
*D:	*
!LO:TX:a:t=Mäßig langſam.	!
{16dL	Jm
16f#J	.
=1	=1
8.a	Krug
16b/	ʒum
16aL	grü-
16f#J	.
16gL	-nen
16eJ	.
=2	=2
4f#	Kran-
8e}	-ʒe,
{8e	da
=3	=3
8f#	kehrt
16f#L	ich
16aJ	.
8g	dur-
16gL	-ſtig
16bJ	.
=4	=4
4a	ein;
8r}	.
{8a	da
=5	=5
8dd	ſaß
8dd	ein
16ddL	Wand-
16cc#J	.
16b\L	-rer
16aJ	.
=6	=6
4b/	drin-
4a	-nen,
=7	=7
4g	drin-
8f#}	-nen
{8a	am
=8	=8
8b/	Tiſch
16aL	bei
16gJ	.
8f#	küh-
8e	-lem
=9	=9
4d	Wein.
8r}	.
==	==
!!!AGN: Geselligkeits - Lied, Freude, Freundschaft
!!!GTL: Lieder der Freude und Geseligkeit
!!!ONB: ESAC (Essen Associative Code) Database: BOEHME
!!!AMT: simple duple
!!!AIN: vox
!!!EED: Helmut Schaffrath
!!!EEV: 1.0
!!Volksweiſe: Jch ſtand auf hohem Berge. 1818.
!!@@COMMENT:"Gedicht von Wilh. Müller 1821, Ʒuerſt in: "77 Gedichte eines reiſenden Waldhorniſten",
!!Deſſau 1821, S. 79. Dann in "Wanderlieder eines rheiniſchen Handwerksburſchen" Nr. 4. Revidirt
!!hier nach der Ausgabe von W. Müllers Liedern 1868. - Die Melodie iſt eine alte Volksweiſe, ge-
!!braucht ʒur Ballade von Graf und Nonne: "Jch ſtand auf hohem Berge" Liederhort I, 316), auch
!!ʒu "Es blies ein junger Jäger wohl in ſein Jägerhorn" (Ldh. 1, 54) und Drei Lilien, drei Lilien"
!!(Ldh. JJ, 542). Jn Deutſchland iſt ſie erſt ſeit Anfang des 19. Jahrh. nachweisbar und mit Müller's
!!Krugliede ſeit 1833 verbunden. Sie ſoll aus England über Holland ʒu uns gekommen ſein und
!!urſprünglich ʒu dem Texte gehören "All in a garden Two lovers sut at eage"". So hat Mar
!!Seiffert über Sweelinck in "Vierteljahrſchr. f. Muſitwiſſenſch. 1891 und Friedländer im Commers-
!!buch S. 153 angegeben. Der engl. Abſtammung dürfte man einige Ʒweifel entgegenſetʒen.
!!314. Friedlichkeit."
!!@@END:
!!!Text: Wilh. Müller
!!!URL-scan: https://archive.org/details/BoehmeVtLieder1895/page/n263/mode/2up
!!!ENC: Anna Maria Matuszewska
!!!EEV: 2024/04/07
*-	*-
